assets/logo_dietinha.svg

<svg width="100" height="100" viewBox="0 0 193 193" xmlns="http://www.w3.org/2000/svg" xml:space="preserve" style="fill-rule:evenodd;clip-rule:evenodd;stroke-linejoin:round;stroke-miterlimit:2"><g transform="translate(-565.871 -1478.51)"/><path style="fill:none" d="M223.025 2.427h180.978v180.978H223.025z" transform="matrix(1.06114 0 0 1.06113 -236.661 -2.58)"/><path d="M390.254 54.088c0-19.984-16.218-36.208-36.194-36.208h-72.443c-19.977 0-36.195 16.224-36.195 36.208v72.416c0 19.983 16.218 36.208 36.195 36.208h72.443c19.976 0 36.194-16.225 36.194-36.208z" style="fill:#57bfd4" transform="matrix(.94538 0 0 .94502 -204.458 10.684)"/><path d="M356.238 137.838c0-7.615-6.18-13.798-13.793-13.798h-64.801c-7.613 0-13.793 6.183-13.793 13.798s6.18 13.798 13.793 13.798h64.801c7.613 0 13.793-6.182 13.793-13.798" style="fill:#232323" transform="matrix(.87778 0 0 .87745 -176.13 17.494)"/><path d="M192.583 710.885h414.834c57.184 0 103.708-46.524 103.708-103.708v-44.379H88.875v44.379c0 57.184 46.524 103.708 103.708 103.708" style="fill:#232323;fill-rule:nonzero" transform="matrix(.09841 0 0 .09842 56.65 37.988)"/><path d="M43.735 473.873c.231-.003.46-.036.694-.036h711.142c.234 0 .46.042.694.036 41.152-1.028 62.068-19.628 62.068-43.944 0-24.472-32.657-45.226-62.744-44.916H44.408c-24.487.003-59.402 13.363-61.356 41.253-2.061 29.423 36.51 47.242 60.683 47.607" style="fill:#232323;fill-rule:nonzero" transform="matrix(.09841 0 0 .1663 56.586 10.503)"/><path d="M625.411 158.241c-59.587-44.577-139.514-69.126-225.052-69.126-85.548 0-165.483 24.549-225.074 69.129-50.868 38.049-78.588 123.378-83.441 174.72l618.872.341c-6.054-88.681-34.437-137.012-85.305-175.064" style="fill:#232323;fill-rule:nonzero" transform="matrix(.09951 0 0 .09842 56.086 37.53)"/></svg>

<?xml version="1.0" encoding="UTF-8" standalone="no"?>
<!DOCTYPE svg PUBLIC "-//W3C//DTD SVG 1.1//EN" "http://www.w3.org/Graphics/SVG/1.1/DTD/svg11.dtd">
<svg width="100%" height="100%" viewBox="0 0 193 193" version="1.1" xmlns="http://www.w3.org/2000/svg" xmlns:xlink="http://www.w3.org/1999/xlink" xml:space="preserve" xmlns:serif="http://www.serif.com/" style="fill-rule:evenodd;clip-rule:evenodd;stroke-linejoin:round;stroke-miterlimit:2;">
    <g transform="matrix(1,0,0,1,-565.871,-1478.51)">
        <g id="Layer1">
        </g>
        <g id="Artboard3" transform="matrix(1.06114,0,0,1.06113,329.21,1475.93)">
            <rect x="223.025" y="2.427" width="180.978" height="180.978" style="fill:none;"/>
            <g transform="matrix(1.33057,0,0,1.0087,742.583,-16.4075)">
                <g transform="matrix(0.66957,0,0,0.882902,-535.286,28.6574)">
                    <path d="M390.254,54.088C390.254,34.104 374.036,17.88 354.06,17.88L281.617,17.88C261.64,17.88 245.422,34.104 245.422,54.088L245.422,126.504C245.422,146.487 261.64,162.712 281.617,162.712L354.06,162.712C374.036,162.712 390.254,146.487 390.254,126.504L390.254,54.088Z" style="fill:rgb(87,191,212);"/>
                </g>
                <g transform="matrix(0.62169,0,0,0.819766,-515.222,35.0197)">
                    <path d="M356.238,137.838C356.238,130.223 350.058,124.04 342.445,124.04L277.644,124.04C270.031,124.04 263.851,130.223 263.851,137.838C263.851,145.454 270.031,151.636 277.644,151.636L342.445,151.636C350.058,151.636 356.238,145.454 356.238,137.838Z" style="fill:rgb(35,35,35);"/>
                </g>
                <g transform="matrix(1,0,0,1,0.123318,-7.10543e-15)">
                    <g id="XMLID_106_" transform="matrix(0.0697087,0,0,0.0919532,-350.477,54.1667)">
                        <path d="M192.583,710.885L607.417,710.885C664.601,710.885 711.125,664.361 711.125,607.177L711.125,562.798L88.875,562.798L88.875,607.177C88.875,664.361 135.399,710.885 192.583,710.885Z" style="fill:rgb(35,35,35);fill-rule:nonzero;"/>
                    </g>
                    <g id="XMLID_107_" transform="matrix(0.0697087,0,0,0.155373,-350.523,28.4884)">
                        <path d="M43.735,473.873C43.966,473.87 44.195,473.837 44.429,473.837L755.571,473.837C755.805,473.837 756.031,473.879 756.265,473.873C797.417,472.845 818.333,454.245 818.333,429.929C818.333,405.457 785.676,384.703 755.589,385.013L44.408,385.013C19.921,385.016 -14.994,398.376 -16.948,426.266C-19.009,455.689 19.562,473.508 43.735,473.873Z" style="fill:rgb(35,35,35);fill-rule:nonzero;"/>
                    </g>
                    <g id="XMLID_108_" transform="matrix(0.0704824,0,0,0.0919532,-350.877,53.7397)">
                        <path d="M625.411,158.241C565.824,113.664 485.897,89.115 400.359,89.115C314.811,89.115 234.876,113.664 175.285,158.244C124.417,196.293 96.697,281.622 91.844,332.964L710.716,333.305C704.662,244.624 676.279,196.293 625.411,158.241Z" style="fill:rgb(35,35,35);fill-rule:nonzero;"/>
                    </g>
                </g>
            </g>
        </g>
    </g>
</svg>
